X:1
T:Water in the Moonlight (1866)
T:Water in the Moonlight 
T:Thomas “Blind Tom” Wiggins (1849–1908)
C:"Blind Tom" Bethune (1849–1908)
%%score { ( 1 3 ) | 2 }
L:1/8
M:3/4
K:Bb
V:1 treble nm="Piano" snm="Pno."
V:3 treble 
V:2 bass 
V:1
"^Andante" F2 |!p! B4 B2 | d2 [Ec]2 [FB]2 | A4 G2 | G4 G2 | c4 [=Ec]2 | [Bd]2 c2 B2 | B4 B2 | %8
 A4 [Af]2 | [Bdf]4 [FBdf]2 | f2 e2 [G=Bd]2 | [_Bd]4 c2 | [Gc]2 B2 [G,B,_DG]2 | %13
 [F,B,=DF](3B,/[DF]/ z/ z2 [B,_D_G]2 |!<(! [=B,=D=G]2 [B,D_A]2 [CE=A]2!<)! |!>(! [Ac]4 [Ac]2!>)! | %16
 [DFB]4 |] %17
V:2
"_Ped a chaque mesure al fine." z2 | [B,,,B,,]2 F,2 [B,D]2 | [B,,,B,,]2 F,2 [B,D]2 | %3
 [E,,,E,,]2 E,2 [G,B,]2 | [E,,,E,,]2 E,2 [G,B,]2 | [C,,,C,,](3[G,B,]/=E/[G,B,]/ =E,2 [G,B,]2 | %6
 [C,,,C,,](3[G,B,]/=E/[G,B,]/ =E,2 [G,B,]2 | [^F,,,^F,,]2 ^F,2 [CE]2 | [=F,,,=F,,]2 =F,2 [F,CE]2 | %9
 [B,,,B,,](3[B,D]/F/[B,D]/ F,2 [F,B,D]2 | [G,,,G,,](3[=B,D]/_A/[B,D]/ G,2 [DF]2 | %11
 [C,,,C,,](3[G,_B,]/=E/[G,B,]/ C,2 [G,B,]2 | [=E,,,=E,,](3G,/[B,_D]/G,/ =E,2 [E,,E,]2 | %13
 [F,,,F,,] (3z/ z/ B,/ F,2 [F,,F,]2 | [F,,,F,,]2 F,2 F,2 | [F,,F,](3A,/[CE]/A,/ F,2 [F,CE]2 | %16
 [B,,,B,,]4 |] %17
V:3
 x2 | [DF](3[B,D]/F/[B,D]/ x4 | [DF](3[B,D]/F/[xB,D]/ x4 | [B,E](3[G,B,]/E/[G,B,]/ x4 | %4
 [G,B,](3[G,B,]/E/[G,B,]/ x4 | [=EG] x x4 | =E x x4 | [C_E](3[CE]/A/[CE]/ x4 | %8
 [CE](3[A,C]/E/[A,C]/ x4 | x6 | [G=B] x x4 | =E x x4 | _D x x4 | x6 | x6 | [CE] x x4 | x4 |] %17

